X:22
T:The Ice Cream Truck Tune
F:http://www.hiico.com/.abc/ice_cream.abc
K:C
M:4/4
L:1/8
Z:Lee Wenzbauer (lee@hiico.com) 12 Sep 2004
|: "C" c2Gc eceg | "F" c'bag- "C" gceg | "G7" fdBG- GBdB |[1 "C" cGag- g2z2  :|[2 "C" c6 z2 
|: "F" c'afc- cfaf | "C" gcag- gceg | "G7" fdBG- GBdB |[1 "C" cGag- g2z2 :|[2 "C" c6 z2  |
